logos/nomad-icon.svg

<?xml version="1.0" encoding="UTF-8"?>
<svg width="256px" height="296px" viewBox="0 0 256 296" version="1.1" xmlns="http://www.w3.org/2000/svg" preserveAspectRatio="xMidYMid">
    <title>Nomad</title>
    <g>
        <path d="M128.043941,2.84217094e-14 L0,73.8647442 L0,221.638174 L127.956059,295.502918 L256,221.638174 L256,73.8647442 L128.043941,2.84217094e-14 Z M185.167182,162.581531 L151.069001,182.267079 L109.852386,159.725369 L109.852386,206.830072 L71.1404051,231.393066 L71.1404051,132.965328 L101.899073,114.158599 L144.521799,136.612427 L144.521799,88.541023 L185.167182,64.1098524 L185.167182,162.581531 Z" fill="#00CA8E"></path>
    </g>
</svg>

<?xml version="1.0" encoding="UTF-8"?>
<svg width="256" height="296" version="1.1" xmlns="http://www.w3.org/2000/svg" preserveAspectRatio="xMidYMid">
	<path d="M128.044 0 0 73.865v147.773l127.956 73.865L256 221.638V73.865L128.044 0Zm57.123 162.582-34.098 19.685-41.217-22.542v47.105L71.14 231.393v-98.428l30.76-18.806 42.622 22.453V88.541l40.645-24.431v98.472Z" fill="#00CA8E"/>
</svg>
